X:2072
T:Lord Bateman 
C:Traditional
O:Isle of Man
Z:Clague collection
B:Kiaul Vannin #72
N:Time signature changed from 3:4 
M:6/8 
K:D 
Add|d3 ABB|BAz Add|d3 Aff|e2z dff|d3 aaf|dAz afe|d3 FAd|d3|| 

